X: 10201
T: Diplodocus, The
R: jig
M: 6/8
K: Dmajor
|:B|cAA edB|cAA ABc|dff g3|aee fed|
cAA A2G|EAA AGE|DEF G2A|1 BAA A2:|2 BAA Acd||
|:e3 e2d|cAB AGE|G3 GEF|GAG FED|
e3 e2d|cAB AGE|DEF G2A|BAA A3|
eAe e2d|cAB AGE|!slide!g3 gef|gag fed|
e3 e2d|cAB AGE|DEF G2A|BAA Afg||
|:a3 aef|g3 efg|fdB Adf|g3 efg|
a3 aef|g3 efg|fed efd|1 cAA Afg:|2 cAA A2||

